X:1
T:CONCERTINO
T:CONCERTINO
T:pour Saxophone Alto Mi et Piano
T:J. B. SINGELÉE Op. 78 
T:à mon ami Jules DEMEUR
C:J. B. SINGELEE
%%score { 1 | 2 } { ( 3 7 ) | ( 4 5 6 ) }
L:1/8
Q:1/4=120
M:4/4
K:Ab
V:1 treble transpose=-9 nm="Alto Saxophone"
V:2 treble transpose=-9 
V:3 treble nm="Piano"
V:7 treble 
V:4 bass 
V:5 bass 
V:6 bass 
V:1
[K:F]"^INTRODUCTION""_Allegro moderato" z8 | z8 | z8 | z8 | z8 | z8 | z8 | z8 | z8 | z8 | z8 | z8 | %12
 z8 | z8 |"^ossia" (d'/c'/b/g/) e2- e/(c/e/f/ ^f/g/c'/b/) | z8 | z8 | z8 | z8 | z8 | z8 | z8 | z8 | %23
 z8 | z8 | z8 | z8 | z8 | z8 | z8 | z8 | z8 | z8 | z8 | z8 | z8 | z8 | z8 | z8"_rall." | %39
"_Tempo" z8 | z8 | z8 | z8 | z8 | f z (^f/d/e/f/) (a/g/f/g/ b/a/^g/a/) | z8 | z8 | z8 | z8 | z8 | %50
 z8 | z8 | z8 | z8"^rall." | z8 | (=b2 ^a>b) (d'2 c'2) | z8 | z8 | z8 | (_e3 d/B/ G2) z2 | %60
 (=b2 ^ab) (c'b^ge) | (e>a) a2 z (ga_b) | c' z (d'>c') c'3 _b | (ab/a/ ^ga) (c'bd^g) | %64
 f z (e/=g/f/=B/) (d/c/"^rall."f/e/ a>g) |"_Tempo" z8 | z8 | z8 | z8 | z8 | z8 | z8 | z8 | z8 | %74
 z8 | (c'a/f/ c) z (D/^F/A/c/ d/^f/a/c'/) | z8 | z8 | z8 | z8 | z8 | z8 | z8 | z8 | z8 | z8 | z8 | %87
 z8 | z8 |] %89
V:2
[K:F]!ff! f4 (A3 B) | (d4 c) z (G>A) | (c>B)(d>^F) (A>G)(B>d) | (!>!f4 e2) z2 |!p! (ef^fg) c4 | %5
 (fg^ga) c4 | =B"_cresc." !>!G2 B (dfg=b) |!f! .c'2 .c2 z4 | %8
"_risoluto""^Solo" c4- c/(A/B/c/ d/e/f/g/) | a2- a(^g/a/ d'/c'/)(g/a/ b/a/f/d/) | %10
 c2 (A/c/f/a/) c'2 (b/a/g/f/) | (e4 d2) z2 | b2- b(a/b/ c'/b/)(^f/g/ a/g/=f/e/) | %13
 d z!<(! (c2 c/)(d/e/f/ g/a/b/c'/!<)! | d')z/c'/ e'3- (e'/d'/ c'/b/a/g/) | (!>!g4 a2) z2 | %16
"_dolce" (cagf) (fede) | (!>!g2- g/f/e/f/) (!>!a2- a/g/^f/g/) | a2- a/(f/e/f/) d'2- d'/(c'/b/a/) | %19
 g4- g(^f/g/ f/g/a/g/) | (g3 =f)!<(! (d/^c/d/e/ f/g/a/=b/)!<)! | %21
 (!>!d'2- d'/c'/^g/a/) (!>!=b2- b/a/=g/f/) | (e/f/^f/g/ a/g/c'/e/) (a2- a/g/=f/d/) | c2 z2 z4 | %24
 (c2 d/c/A/G/) (F/E/F/A/ c/e/f/a/) | (g>f) c4 (c>d) | (_e !>!d'2) c' (baga) | (c'2 b2) z (dfb) | %28
 a3 e (^deae) | (g2 f2) z!<(! (def)!<)! |!>(! (f3 e) (e3 d)!>)! | ^c2 z2 z (A_BA) | %32
 (Afed) (d^c=Bc) | (e2 d2) z (d_ed) | (dbag) (g^fef) | (a2 g2) z (g/a/ c'/b/g/e/) | %36
!<(! (^c2 b2) (a3 e)!<)! | g>f!>(! d'2- d'!>)!(c'/b/ a/g/f/e/) | d2 (A/^G/A/d/ f3 e) | %39
 d z (f/e/d/^c/) (d/c/d/e/ f/e/f/g/ | a)(D/F/ A/d/f/a/) (!>!d'2- d'/c'/b/a/) | %41
 (c'2 b/)(B/d/g/) (!>!c'2- c'/b/a/g/) | (b2 a/)(A/c/f/) (b2- b/a/g/f/) | %43
 a2- a/(G/B/e/) (a2- a/g/f/e/) | f z .^f/(d/^c/d/) .g/(d/c/d/) .a/(d/c/d/) | %45
 (c'/b/a/b/) (b/a/^g/a/) (a/=g/^f/g/) (g/=f/e/f/) | %46
 e!<(!(e/f/ g/a/=b/c'/!<)! _d')(_a/f/ _d/f/a/=B/ | c)(e/f/ g/a/=b/c'/ _d')(_a/f/ _d/f/a/=B/) | %48
 c2 z2 z4 | z8 |"_espress." a2 (e>f) (d'3 c') | (c'2 b>a) g2 z2 | a2 (a>e) (gfga) | %53
!<(! (=b2{c'b} ab!<)!!>(! d')(c'b_b)!>)! | a2 (e>f) (d'3 c') | =b2 (e'>d') (d'2 c'2) | %56
 (=b2 af) (e2 ^d/e/^g/a/) | (c'3 =b a2) z2 | (a2 ^ga) (_ba^fd) | (_e'3 d'/b/ g2) z2 | %60
 (=b2 ^ab) (c'b^ge) | e' z (!>!e'4 d'>c') | c' z (d'>c') (c'3 _b) | %63
!<(! (ab/a/ ^ga) (c'b!fermata!e'd')!<)! | c'(^g/a/ e/=g/f/=B/) (d/c/B/c/ d'>e) | %65
 f2 z z/ (3(=B/4c/4d/4 c)z/(3(e/4f/4g/4 f)z/(3(^g/4a/4b/4 | %66
 a)!>!d'- d'/(c'/^g/a/ b/a/=g/f/ e/f/g/a/) | %67
 (a2 d)z/(3(^c/4d/4e/4 d)z/(3(^f/4g/4a/4 g)z/(3(a/4b/4c'/4 | b>).c (e'>d') (c'/b/g/e/ d/c/=B/_B/) | %69
 A2 z z/ (3(=B/4c/4d/4 c)z/(3(e/4f/4g/4 f)z/(3(^g/4a/4_b/4 | %70
 a) !>!A2 (A/=B/)"^stacc." .^c/.d/.e/.f/ .g/.a/.=b/.^c'/ | %71
 .d'2 z z/ (3(^c/4d/4e/4 d)z/(3(e/4f/4g/4 f)z/(3(a/4f/4d/4 | %72
 =B) !>!G2 (G/A/) .B/.c/.d/.e/ .f/.g/.a/.=b/ | .c' z z2"_legato" (E/G/_B/c/ e/g/b/d'/) | %74
 (c'a/f/ d/c/A/F/) (E/G/B/c/ e/g/b/d'/) | (c'a/f/ d/c/A/F/) (D/^F/A/c/ d/^f/a/c'/) | %76
 (b/a/g/f/ e/g/f/d/ c/)(a/g/f/ e/d/c/B/) |!<(! (A/c/d/e/ f/g/a/b/)!<)! (c'/a/^f/d/ ^c/d/_e/d/) | %78
 d(b/a/ g/f/e/d/ c/)(a/g/f/ e/c/B/G/ | F) z (!>!c'/a/f/c/) (!>!a/f/c/A/) (!>!f/c/A/F/) | %80
!<(! (D/F/G/=B/ d/f/g/=b/)!<)!!>(! (d'/c'/_b/g/ e/c/B/G/)!>)! | %81
 F z (!>!c'/a/f/c/) (!>!a/f/c/A/) (!>!f/c/A/F/) | %82
!<(! (D/F/G/=B/ d/f/g/=b/)!<)!!>(! (d'/c'/_b/g/ e/c/B/G/!>)! | %83
 F) z"_cresc." (A/B/=B/c/ ^c/d/_e/=e/ f/^f/g/^g/ | a) z!<(! (c/^c/d/_e/ =e/f/^f/g/ ^g/a/b/=b/!<)! | %85
 c'/)(a/g/f/ e/d/c/B/ A/)(f/e/d/ c/B/A/G/ | F) z!ff! e z f z g z | a2 z2 c'2 z2 | !fermata!F4 z4 |] %89
V:3
!ff! [ca]4 (c3 d) | (f4 e) z (B>c) | (e>d)(f>=A) (c>B)(d>F) | (!>!A4 G2) z2 |!p! (GA=AB) E4 | %5
 (AB=Bc) E4 | =D"_cresc." !>!a2 f (=dBAF) | .E2 .[GBe]2 z4 | z [CEA][CEA][CEA] [CEA] z z2 | %9
 z [CEA][CEA][CEA] [CEA] z z2 | z [CEA][CEA][CEA] z [A,EA][A,EA][A,EA] | z (A,DF AFDA,) | %12
 z [B,DF][B,DF][B,DF] [B,DF] z z2 | z [B,DE][B,DE][B,DE] [B,DE] z z2 | %14
 z [B,DE][B,DE][B,DE] [B,DE] z z2 | z!>(! (=B,=DF ECAE)!>)! |!p! z2 [CEA]2 z2 [DEG]2 | %17
 z [A,EA][A,EA] z z [B,DE][B,DE] z | z [A,CE][A,CE] z z [A,DF][A,DF] z | z (G,B,E) G z z2 | %20
 z (B,[FA]B,) z (B,[=DA]B,) | z [B,EG][B,EG] z z [CF][CF] z | [B,E]2 z2 [B,=D]4 | %23
 z!>(! [B,E]z[B,F] z Ez[DE]!>)! |!p! z [CE][CE][CE] [CE][CE][CE][CE] | %25
 z [CE][CE][CE] [CE][CE][CE][CE] | z [C_G][CG][CG] [CG][CG][CG][CG] | z [DF][DF][DF] [DF] z z2 | %28
 z CCC z [B,=E][B,E][B,E] | z [CF][CF][CF] [CF] z z2 | %30
 z!<(! [G,_DF][G,DF][G,DF] z [G,=DF][G,DF][G,DF]!<)! | [G,C=E] z!f! [EGc]2 z4 | %32
 z2 [CF]2 z2 [C=E]2 | z2 [CF]2 z2 [CEF]2 | z2 [B,_DF]2 z2 [=A,EF]2 | z [B,F][B,F][B,F] [B,F] z z2 | %36
 z2 ([=EG]2 [Fc]2 [GB]2 | [CFA]2) z2 !>![G,DF]4 | [A,CF]2 z2 [B,=E]4 | %39
 z [CF][CF][CF] z [CF][CF][CF] | z [CF][CF][CF] z [CEF][CEF][CEF] | %41
 z [DF][DF][DF] z [B,E][B,E][B,E] | z [CE][CE][CE] z [A,D][A,D][A,D] | %43
 z [B,D][B,D][B,D] z [B,C][B,C][B,C] | z!<(! [A,C] z [=A,CF] z [B,DF] z [CEF]!<)! | %45
 z"_cresc." [DF] z [EF=A] z [B,FB] z [B,F_A] | [B,EG] z z2 ((!>![_C_F]4 | %47
 [B,E])) z z2 ((!>![_C_F]4 | [B,E]))!f!(E/F/ G/A/B/c/ _d)(G/A/ B/c/d/e/) | %49
!>(! ([GB=f]edB GE=DE)!>)! |!p! z [CE][CE][CE] z [CE][CE][CE] | z [DE][DE][DE] z [B,D][B,D][B,D] | %52
 z [B,C][B,C][B,C] z [A,C][A,C][A,C] | z [B,=D][B,D][B,D] z [B,E][B,E][B,E] | %54
 z [CE][CE][CE] z [CE][CE][CE] | z [=DF][DF][DF] z [CE][CE][CE] | z [C=D][CD][CD] z [CE][CE][CE] | %57
 z [=B,F][B,F][B,F] z [CE][CE][CE] | z [=A,CE][A,CE][A,CE] [A,CE][A,CE][A,CE][A,CE] | %59
 z [B,D][B,D][B,D] [B,D][B,D][B,D][B,D] | z [=B,=DF][B,DF][B,DF] [B,DF][B,DF][B,DF][B,DF] | %61
 z [CE][CE][CE] z [B,EG][B,EG][B,EG] | z [A,EA][A,EA][A,EA] z [DEG][DEG][DEG] | %63
 z [CE_G][CEG][CEG]"_suivez" [DF] z [DFB] z | [CA] z z2 !>![B,DG]4 | %65
 z [CE][CE][CE] [CE][CE][CE][CE] | z [CE][CE][CE] z [CE][CE][CE] | %67
 z [B,DF][B,DF][B,DF] [B,DF][B,DF][B,DF][B,DF] | z [B,DE][B,DE][B,DE] z [B,DE][B,DE][B,DE] | %69
 z [CE][CE][CE] [CE][CE][CE][CE] | z [C=E][CE][CE] z [CE][CE][CE] | %71
 z [CF][CF][CF] [CF][CF][CF][CF] | z [=DF][DF][DF] z [B,=D][B,D][B,D] | %73
 z [B,E][B,E][B,E]!p! z [B,_DE]z[B,DE] | z [A,CE]z[A,CE] z [G,DE]z[G,DE] | %75
 z [A,CE][A,CE][A,CE] z [CEF]z[CEF] | z [B,DF]z[DFB] z [CEA]z[B,DEG] | [CEA]2 z2 !>![CE=A]4 | %78
 [DFB]z[DFB] z [CEA]z[B,DEG] z | [CEA] z !>![CEA]4 [CEA]2 | [B,=DFA]4 [B,_DEG]4 | %81
 [CEA] z !>![CEA]4 [CEA]2 | [B,=DFA]4 [B,_DEG]4 | !///-![EA]2"_cresc." C2 !///-![EA]2 C2 | %84
 !///-![EA]2 C2 !///-![EA]2 C2 | [CEA]2 z2 [CEA]2 z2 | [CEA] z!ff! [EGB] z [EAc] z [Bdeg] z | %87
 [cea]2 z2 [ceac']2 z2 | !fermata![CEA]4 z4 |] %89
V:4
 A,.[CE].[CE].[CE] A,.[CE].[CE].[CE] | G,[B,E][B,E][B,E] _G,[A,CE][A,CE][A,CE] | %2
 [F,A,D]2 [E,F,=A,C]2 [D,F,B,]2 [B,,D,F,B,]2 | z2 (!>![_F,B,-D-]2 [E,B,D]2) z2 | %4
 E,[B,D][B,D][B,D] E,[B,D][B,D][B,D] | E,[A,C][A,C][A,C] E,[A,C][A,C][A,C] | %6
 E,[A,B,=D][A,B,D][A,B,D] E,[A,B,D][A,B,D][A,B,D] | [E,G,B,]2 [E,,E,]2 z4 | %8
 [A,,A,]4- [A,,A,] z z2 | [A,,A,]4- [A,,A,] z z2 | [A,,A,]2 z2 [C,,C,]2 z2 | %11
 [D,,D,]4- [D,,D,] z z2 | [B,,,B,,]4- [B,,,B,,] z z2 | [E,,E,]4- [E,,E,] z z2 | %14
 [E,,E,]4- [E,,E,] z z2 | A,,2 z2 A,2 z2 | A,,2 z2 B,,2 z2 | C,2 z2 G,,2 z2 | A,,2 z2 [D,,D,]2 z2 | %19
 [E,,E,]2 z2 z4 | [=D,,=D,]2 z2 [B,,,B,,]2 z2 | [E,,E,]2 z2 [A,,,A,,]2 z2 | G,2 z2 A,4 | %23
!>(! x G, x G, x A, x!>)! G, |!p! x A,A,A, A,A,A,A, | x A,A,A, A,A,A,A, | x A,A,A, A,A,A,A, | %27
 x A,A,A, A, x x2 | x [G,B,][G,B,][G,B,] x G,G,G, | x A,A,A, A, x x2 | %30
 [B,,,B,,]2 z2 [=B,,,=B,,]2 z2 | [C,,C,] z [C,,C,]2 z4 | x2 A,2 x2 B,2 | x2 A,2 x2 x2 | %34
 B,,2 z2 C,2 z2 | D,4 z4 | z2!>(! (B,2 A,2 =E,2 | F,2)!>)! z2 !>![B,,,B,,]4 | x2 z2 G,4 | %39
 x A,A,A, x A,A,A, | x A,A,A, x x x2 | [B,,B,]2 z2 [G,,G,]2 z2 | [A,,A,]2 z2 [F,,F,]2 z2 | %43
 x2 z2 x G,G,G, | [F,,F,] z E, z D, z =A,, z | B,, z C, z D, z =D, z | [E,,E,] z z2 (!>!A,4 | %47
 G,) z z2 (A,4 | G,) z z2 [E,G,B,] z z2 | [E,G,B,D]4- [E,G,B,D] z z2 | x A,A,A, x A,A,A, | %51
 x G,G,G, x G,G,G, | x G,G,G, x4 | x A,A,A, x G,G,G, | x A,A,A, x A,A,A, | x G,G,G, x G,G,G, | %56
 x A,A,A, x G,G,G, | x G,G,G, x G,G,G, | [F,,F,]4 z4 | [B,,,B,,]4 z4 | [G,,G,]4 z4 | %61
 [C,,C,]2 z2 (([_D,,_D,]4 | [C,,C,]2)) z2 [G,,,G,,]4 | [=A,,,=A,,]2 z2 [B,,,B,,] z [D,,D,] z | %64
 [E,,E,] z z2 [E,,E,]4 | x A,A,A, A,A,A,A, | x A,A,A, x A,A,A, | x F,F,F, F,F,F,F, | %68
 x G,G,G, x G,G,G, | x A,A,A, A,A,A,A, | x B,B,B, x B,B,B, | x A,A,A, A,A,A,A, | %72
 x A,A,A, x [F,A,][F,A,][F,A,] | x G,G,G, G,,zE,, z | A,,zE,, z B,,zE,, z | A,,2 z2 z =A,,zF,, | %76
 B,,zD, z E,zE,, z | A,,2 z2 !>![F,,F,]4 | [B,,,B,,]z[D,,D,] z [E,,E,]z[E,,E,] z | %79
 [A,,A,] z !>![A,,,A,,]4 [A,,,A,,]2 | [B,,,B,,]4 [E,,E,]4 | [A,,A,] z [A,,,A,,]4 [A,,,A,,]2 | %82
 [B,,,B,,]4 [E,,E,]4 | !///-!A,2 A,,2 !///-!A,2 A,,2 | !///-!A,2 A,,2 !///-!A,2 A,,2 | %85
 [A,,A,]2 z2 [A,,A,]2 z2 | [A,,A,] z [E,,E,] z [A,,A,] z [E,,E,] z | %87
 [A,,,A,,]2 z2 [A,,C,E,A,]2 z2 | !fermata![A,,,A,,]4 z4 |] %89
V:5
 x8 | x8 | x8 | x8 | x8 | x8 | x8 | x8 | x8 | x8 | x8 | x8 | x8 | x G,G,G, G, x x2 | %14
 x A,A,A, A, x x2 | x8 | x8 | x8 | x8 | x8 | x8 | x2 x2 x A,A, x | x8 | x8 | x8 | x8 | x8 | x8 | %28
 x8 | x8 | x8 | x8 | x8 | x8 | x8 | x8 | x8 | x8 | x8 | x8 | x8 | x8 | x8 | x8 | x8 | x8 | x8 | %47
 x8 | x8 | x8 | x8 | x8 | x8 | x8 | x8 | x8 | x8 | x8 | x8 | x8 | x8 | x8 | x8 | x8 | x8 | x8 | %66
 x8 | x8 | x8 | x8 | x8 | x8 | x8 | x8 | x8 | x8 | x8 | x8 | x8 | x8 | x8 | x8 | x8 | x8 | x8 | %85
 x8 | x8 | x8 | x8 |] %89
V:6
 x8 | x8 | x8 | x8 | x8 | x8 | x8 | x8 | x8 | x8 | x8 | x8 | x8 | x8 | x8 | x8 | x8 | x8 | x8 | %19
 x8 | x8 | x8 | [B,,,B,,]2 x2 [B,,,B,,]4 | [E,,E,]z_D, z C,zB,, z | A,,2 z2 z4 | A,,2 z2 z4 | %26
 [A,,,A,,]8 | [D,,D,]4- [D,,D,] z z2 | [=E,,=E,]2 z2 [C,,C,]2 z2 | [F,,F,]4- [F,,F,] z z2 | x8 | %31
 x8 | F,,2 z2 F,,2 z2 | A,,2 z2 =A,,2 z2 | x8 | x8 | x8 | x8 | [C,,C,]2 x2 [C,,C,]4 | %39
 [F,,F,]2 z2 [F,,F,]2 z2 | [F,,F,]2 z2 [=A,,=A,]2 z2 | x8 | x8 | [G,,G,]2 x2 [=E,,=E,]2 z2 | x8 | %45
 x8 | x x x2 (([=D,,=D,]4 | [E,,E,])) x x2 (([=D,,=D,]4 | [E,,E,])) x x2 x x x2 | x8 | %50
 [A,,,A,,]2 z2 [C,,C,]2 z2 | [B,,,B,,]2 z2 [E,,E,]2 z2 | [=E,,=E,]2 z2 [F,,F,]2 z2 | %53
 [B,,,B,,]2 z2 [E,,E,]2 z2 | [A,,,A,,]2 z2 [C,,C,]2 z2 | [=B,,,=B,,]2 z2 [C,,C,]2 z2 | %56
 [F,,F,]2 z2 [G,,G,]2 z2 | [G,,,G,,]2 z2 [C,,C,]2 z2 | x8 | x8 | x8 | x8 | x8 | x8 | x8 | %65
 [A,,,A,,]2 z2 z4 | [A,,,A,,]2 z2 [A,,,A,,]2 z2 | [D,,D,]2 z2 z4 | [E,,E,]2 z2 [E,,E,]2 z2 | %69
 [A,,,A,,]2 z2 z4 | [G,,,G,,]2 z2 [C,,C,]2 z2 | [F,,,F,,]2 z2 z4 | [B,,,B,,]2 z2 [B,,,B,,]2 z2 | %73
 [E,,E,]2 z2 x x x x | x8 | x8 | x8 | x8 | x8 | x8 | x8 | x8 | x8 | x8 | x8 | x8 | x8 | x8 | x8 |] %89
V:7
 x8 | x8 | x8 | x8 | x8 | x8 | x8 | x8 | x8 | x8 | x8 | x8 | x8 | x8 | x8 | x8 | x8 | x8 | x8 | %19
 x8 | x8 | x8 | x8 | x8 | x8 | x8 | x8 | x8 | x8 | x8 | x8 | x8 | x8 | x8 | x8 | x8 | x2 (_D2 C4) | %37
 x8 | x8 | x8 | x8 | x8 | x8 | x8 | x8 | x8 | x8 | x8 | x8 | x8 | x8 | x8 | x8 | x8 | x8 | x8 | %56
 x8 | x8 | x8 | x8 | x8 | x8 | x8 | x8 | x8 | x8 | x8 | x8 | x8 | x8 | x8 | x8 | x8 | x8 | x8 | %75
 x8 | x8 | x8 | x8 | x8 | x8 | x8 | x8 | x8 | x8 | x8 | x8 | x8 | x8 |] %89

